X:105
T:Tar Road to Sligo
R:jig
M:6/8
L:1/8
K:D
fdB Bcd | ecA BAG | FGA ABc | dcd efg |
fdB Bcd | ecA BAG | FGA a2g |1 fdc d2e :|2 fdc d2B |:
Adf Adf | gfg efg | afd dcd | Bed cBA |1
Adf Adf | gfg efg | afd bge | edc d2B :|2
fdB gec | a2a bge | a^ga b=ge | edc d2e |]
